X: 35436
T: Roving Bachelor, The
R: reel
M: 4/4
K: Gmajor
|B2 BA B2 ge|d2 ge dBGA|B2 BA B2 ge|dBAc BGGA|
B2 BA B2 ge|d2 ge dBGA|B2 BA B2 ge|dBAc BG G2|
gfed edBd|gfed e2 ef|gfed efge|afge dfaf|
gfed edBd|gfed e2 ef|gbag fage|d2 ge dBGA|

